X: 1
T:Trundles
N:Taught by Ged Foley at a Riley School workshop, Dec. 2004. Ged told us he got this tune from Tommy Trundle.
M:4/4
L:1/8
R:reel
K:Am
A,2EA, GA,EA,|GFEF DECB,|A,2EA, GA,EA,|DCB,C DGEC|
A,2EA, GA,EA,|GFEF DECB,|A,EED CEB,E|DCB,C DGEC:|
EDGA eABA|EDGA Bcd2|EDGA eABA|EFED EA,A,2|
EDGA eABA|EDGA Bcd2|ecdB cABG|EFED EA,A,2:|
